!!!OTL: LUSTIG GERUESTET
!!!ARE: Europa, Mitteleuropa, Deutschland
!!!SCT: F0762
!!!YEM: Copyright 1995, estate of Helmut Schaffrath.
**kern
*ICvox
*Ivox
*M4/4
*k[f#c#g#d#]
*E:
=1
{4ee
8b
8b
4ee
8b
8b
=2
8a
8g#
8f#
8e
2b}
=3
{4e
8g#
8a
4b
8b
8b
=4
8cc#
8b
8a
8g#
4g#
4f#}
=5
{4ee
8ee
8ee
4ee
8e
8e
=6
8e
8g#
8b
8cc#
8b
8a
4g#}
=7
{4b
8b
8b
4b
8cc#
8a
=8
4g#
8a
8f#
2e}
=9
{4e
8g#
8a
4b
8b
8b
=10
8cc#
8b
8a
8g#
4g#
4f#}
=11
{4ee
8ee
8ee
4ee
8e
8e
=12
8e
8g#
8b
8cc#
8b
8a
4g#}
=13
{4b
8b
8b
4b
8cc#
8a
=14
4g#
8a
8f#
2e}
==
!!!AGN: Geselligkeits -, Bundes - Lied, Rundgesang
!!!ONB: ESAC (Essen Associative Code) Database: FINK
!!!AMT: simple quadruple
!!!AIN: vox
!!!EED: Helmut Schaffrath
!!!EEV: 1.0
*-
